X:26
T:Jamie Allen
R:polka
Z:id:hn-polka-26
M:2/4
L:1/8
K:D
FD D>E|FD EF|GE EF|GA/G/ FE|Dd dc|BA FG|AB/A/ GE|1 D2 D>E:|2 DE FE||
|:Dd dc|BA GF|Ee ed|cA Bc|d>e dB|A2 FG|AB/A/ GE|1 DE FE:|2 D2 D>E||
<end>
<start>
